!!!COM: Igor (Fyodorovich) Stravinsky
!!!OTL: [T384_Str-25/11/[3]1-7]
**kern	**dynam	**kern	**dynam	**kern	**dynam
*grp:A	*grp:A	*grp:A	*grp:A	*grp:B	*grp:B
*part3	*part3	*part2	*part2	*part1	*part1
*staff3	*	*staff2	*	*staff1	*
*I"Clarinet in A II	*	*I"Clarinet in A I	*	*I"Flute	*
*I'Cl. II. (A) 	*	*I'Cl. I. (A)	*	*I'Fl.	*
*clefG2	*	*clefG2	*	*clefG2	*
*ITrd2c3	*	*ITrd2c3	*	*	*
*k[f#c#]	*	*k[f#c#]	*	*k[f#c#]	*
*D:	*	*D:	*	*D:	*
*M3/4	*	*M3/4	*	*M3/4	*
!!LO:REH:t=3
=23!|:	=23!|:	=23!|:	=23!|:	=23!|:	=23!|:
!	!	!	!LO:DY:ed=brack	!LO:TX:t=[[half-dot]=66]	!
4r	.	4D	p	4ryy	.
!	!	!	!	!	!LO:DY:ed=brack
.	.	.	.	16ryy	4ryy
.	.	.	.	16ryy	.
!	!LO:DY:ed=brack	!	!	!	!
(4f#'	p	(4d'	.	2ryy	.
4f#')	.	4d')	.	.	.
=24	=24	=24	=24	=24	=24
.	.	.	.	16ryy	.
.	.	.	.	16ryy	.
4r	.	4C#	.	2ryy	.
(4g'	.	(4e'	.	.	.
.	.	.	.	16ryy	.
.	.	.	.	16ryy	.
4g')	.	4e')	.	4ryy	.
=25	=25	=25	=25	=25	=25
4r	.	4C#	.	4ryy	.
.	.	.	.	16ryy	.
.	.	.	.	16ryy	.
(4g'	.	(4e'	.	2ryy	.
4g')	.	4e')	.	.	.
=26	=26	=26	=26	=26	=26
.	.	.	.	16ryy	.
.	.	.	.	16ryy	.
4r	.	4D	.	2ryy	.
(4f#'	.	(4d'	.	.	.
.	.	.	.	16ryy	.
.	.	.	.	16ryy	.
4f#')	.	4d')	.	4ryy	.
=27	=27	=27	=27	=27	=27
4r	.	4D	.	4ryy	.
.	.	.	.	16ryy	.
.	.	.	.	16ryy	.
(4f#'	.	(4d'	.	2ryy	.
4f#')	.	4d')	.	.	.
=28	=28	=28	=28	=28	=28
.	.	.	.	16ryy	.
.	.	.	.	16ryy	.
4r	.	4C#	.	2ryy	.
(4g'	.	(4e'	.	.	.
.	.	.	.	16ryy	.
.	.	.	.	16ryy	.
4g')	.	4e')	.	4ryy	.
=29	=29	=29	=29	=29	=29
4r	.	4C#	.	4ryy	.
.	.	.	.	16ryy	.
.	.	.	.	16ryy	.
(4g'	.	(4e'	.	2ryy	.
4g')	.	4e')	.	.	.
=	=	=	=	=	=
*-	*-	*-	*-	*-	*-
!!!system-decoration: [(s1[{s2,s3}])]
!!!RDF**kern: > = above
!!!RDF**kern: < = below
!!!EED: Rafael Laurindo
!!!EEV: 2021/07/28
!!!EED2: Daniel Wright
!!!EEV2: 2022/02/10
